X:1
T:Title
%%score ( 1 2 ) { 3 | 4 }
L:1/8
Q:1/4=93
M:3/4
K:Db
V:1 treble nm="Grand Piano, Soprano"
V:2 treble 
V:3 treble nm="Choir Pad, Bass"
V:4 bass 
V:1
 [FA][FA] [FA] [Fd]3 | [FA][EG] [DF] [DF]2 [CE] | [CE][DF] [EG] [FA]2 [GB] | %3
w: By~William~James~Kirkpatrick * * *|||
 [FA][DF] D [DF]2 [CE] | [CE][DF] [EG] [FA]3 | [DF][EG] [FA] [GB]3 | [Bd][Ac] [GB] A2 d- | %7
w: ||||
 d [Ec]2 [Ge]2 [Fd]- | [Fd]2 z [Fd]3 | [Fd][Ac] [GB] [FA]2 [DF]- | [DF]2 z [GB]3 | %11
w: ||||
 [Gc][Ad] [Ge] [Fd]2 [Ec] | AA A [Af]3 | [Ae][Ad] [Ac] [GB]3 | [Ge][Ad] [GB] A2 d- | %15
w: ||||
 d [Ec]2 [Ge]2 [Fd]- | [Fd]6 |] %17
w: ||
V:2
 x6 | x6 | x6 | x6 | x6 | x6 | z2 z F3- | F z z2 z2 | x6 | x6 | x6 | x6 | x6 | x6 | z2 z F3- | %15
 F z z2 z2 | x6 |] %17
V:3
 DD D A,3 | A,[K:bass]A, A, A,3 | A,A,[K:treble] C D3- | D .A,3 z2 | A,A, C D3 | DD D D3 | %6
 DD D D3- | D[K:bass] A,2 A,2 A,- | A,2 z A,3 | A,A,[K:treble] D D2 D- | D2 z D3 | %11
 ED[K:bass] B, A,2 A, | A,A, A,[K:treble] D3 | CD D D3 | CD D[K:bass] D3- | D A,2 A,2 A,- | A,6 |] %17
V:4
 D,D, D, D,3 | D,C, D, A,,3 | A,,A,, A,, D,3- | D,D, F, A,2 A, | G,F, E, D,3 | D,D, D, G,3 | %6
 G,G, G, A,3- | A, z z D,2 D,- | D,2 z D,3 | D,D, D, D,2 D,- | D,2 z G,3 | E,F, .G,2 z2 | %12
 z2 z D,3 | E,F, F, G,3 | E,F, G, A,3- | A, z z D,2 D,- | D,6 |] %17

